!! 00000] TT[WS
!!!OTL: Shou fu zuoquan cheng
!!!ARE: Asia, China, Shanxi Zuoquan
!! Ethnic Group: Han
!! WII, 216 (1)
!!!SCT: J0721
!!!YEM: Copyright 1995, estate of Helmut Schaffrath.
**kern
*ICvox
*Ivox
*M2/4
*k[f#]
*G:
{8a
8a
8a
8dd
=1
8cc
8b
8a
8b
=2
8e
8f#
8a
16b
16a
=3
8g
16f#
16e
4d}
=4
{8a
8dd
8cc
8b
=5
4a
8d
8e
=6
4g
8f#
8e
=7
8d
8d
8e
8B
=8
2d}
==
!!!AGN: Xiaodiao. XÅshi, Sushuo
!!!ONB: ESAC (Essen Associative Code) Database: CHINA
!!!AMT: simple duple
!!!AIN: vox
!!!EED: Helmut Schaffrath
!!!EEV: 1.0
*-
